rospo-icon-theme-classic-common/24x24/apps/desktop-environment-unity.svg

<svg height="24" width="24" xmlns="http://www.w3.org/2000/svg"><circle cx="12" cy="12.5" opacity=".2" r="10"/><circle cx="12" cy="12" fill="#a43b84" r="10"/><path d="m8 7.5v6s0 4 3 4h5v-10h-2v8h-2.5c-1.5 0-1.5-2-1.5-2v-6z" opacity=".2"/><path d="m8 7v6s0 4 3 4h5v-10h-2v8h-2.5c-1.5 0-1.5-2-1.5-2v-6z" fill="#fff"/><path d="m12 2a10 10 0 0 0 -10 10 10 10 0 0 0 0 .293 10 10 0 0 1 10-9.793 10 10 0 0 1 10 9.707 10 10 0 0 0 0-.207 10 10 0 0 0 -10-10z" fill="#fff" opacity=".1"/></svg>

<svg xmlns="http://www.w3.org/2000/svg" width="24" height="24" version="1">
 <circle style="opacity:0.2" cx="12" cy="12.5" r="10"/>
 <circle style="fill:#a43b84" cx="12" cy="12" r="10"/>
 <path style="opacity:0.2" d="M 8,7.5 V 13.5 C 8,13.5 8,17.5 11,17.5 H 16 V 7.5 H 14 V 15.5 H 11.5 C 10,15.5 10,13.5 10,13.5 V 7.5 Z"/>
 <path style="fill:#ffffff" d="M 8,7 V 13 C 8,13 8,17 11,17 H 16 V 7 H 14 V 15 H 11.5 C 10,15 10,13 10,13 V 7 Z"/>
 <path style="opacity:0.1;fill:#ffffff" d="M 12 2 A 10 10 0 0 0 2 12 A 10 10 0 0 0 2 12.293 A 10 10 0 0 1 12 2.5 A 10 10 0 0 1 22 12.207 A 10 10 0 0 0 22 12 A 10 10 0 0 0 12 2 z"/>
</svg>
